assets/images/logo-medium-excluded-light.svg

<svg height="56" viewBox="0 0 56 56" width="56" xmlns="http://www.w3.org/2000/svg"><path d="m56 0v56h-56v-56zm-42.6366 18.7285v16.6277c.1023.5998-.0867 1.2125-.5093 1.6505l-3.95176 4.7934v.6321h11.20536v-.6321l-3.9517-4.7934c-.4257-.4372-.6265-1.0459-.5445-1.6505v-14.3803l9.8354 21.4563h1.1416l8.448-21.4563v17.1018c0 .4565 0 .5443-.2986.8428l-3.0384 2.9498v.6321h14.7531v-.6321l-2.9331-2.8796c-.2589-.1973-.3873-.5217-.3337-.8427v-21.1578c-.0536-.3211.0748-.6454.3337-.8428l3.0034-2.8796v-.6321h-10.3975l-7.4117 18.4889-8.4304-18.4889h-10.90675v.6321l3.51265 4.2316c.3448.3108.521.7673.4742 1.2291z" fill="#fff"/></svg>

<?xml version="1.0" encoding="UTF-8"?>
<svg width="56px" height="56px" viewBox="0 0 56 56" version="1.1" xmlns="http://www.w3.org/2000/svg" xmlns:xlink="http://www.w3.org/1999/xlink">
    <!-- Generator: Sketch 52.6 (67491) - http://www.bohemiancoding.com/sketch -->
    <title>logo_medium_excluded</title>
    <desc>Created with Sketch.</desc>
    <g id="Page-1" stroke="none" stroke-width="1" fill="none" fill-rule="evenodd">
        <g id="logo_medium_excluded" fill="#FFFFFF" fill-rule="nonzero">
            <path d="M56,0 L56,56 L0,56 L0,0 L56,0 Z M13.3634,18.7285 L13.3634,35.3562 C13.4657,35.956 13.2767,36.5687 12.8541,37.0067 L8.90234,41.8001 L8.90234,42.4322 L20.1077,42.4322 L20.1077,41.8001 L16.156,37.0067 C15.7303,36.5695 15.5295,35.9608 15.6115,35.3562 L15.6115,20.9759 L25.4469,42.4322 L26.5885,42.4322 L35.0365,20.9759 L35.0365,38.0777 C35.0365,38.5342 35.0365,38.622 34.7379,38.9205 L31.6995,41.8703 L31.6995,42.5024 L46.4526,42.5024 L46.4526,41.8703 L43.5195,38.9907 C43.2606,38.7934 43.1322,38.469 43.1858,38.148 L43.1858,16.9902 C43.1322,16.6691 43.2606,16.3448 43.5195,16.1474 L46.5229,13.2678 L46.5229,12.6357 L36.1254,12.6357 L28.7137,31.1246 L20.2833,12.6357 L9.37655,12.6357 L9.37655,13.2678 L12.8892,17.4994 C13.234,17.8102 13.4102,18.2667 13.3634,18.7285 Z" id="Combined-Shape"></path>
        </g>
    </g>
</svg>
